images/trainline/trainline-logo-white.svg

<svg height="25" viewBox="0 0 116 25" width="116" xmlns="http://www.w3.org/2000/svg"><path d="m21.8940738 65.9191344c-.4009688 1.6539964-1.1277248 2.8318424-2.6313579 3.8342644h5.1123526v-3.8342644zm-7.8940738 0v3.8342644h1.6289359c2.8819634 0 4.6362021-1.5286936 5.312837-3.8342644zm7.1171967-.9520504c.0751817-.2506055.0751817-.5515827.0751817-.8771193v-2.9323352h-3.9094461v2.2053286c0 .6515744-.1253028 1.2282177-.4260294 1.6289359h4.2602938zm-4.2352332 5.7135553v6.4906829c0 3.0824479 1.954723 4.9369287 5.0622314 4.9369287 1.5788148 0 2.4308736-.4009688 2.4308736-.4009688v-3.5585984c-.225545.0751817-.8019377.1253028-1.3282093.1253028-1.227967 0-1.8795414-.45109-1.8795414-1.8544809v-5.7388663zm19.9732598-4.8366866c-.3257871-.0250605-.6515743-.0751816-1.0024221-.0751816-1.3532698 0-3.5585983.4009688-4.5359598 2.5060552v-2.3807525h-4.1851122v15.9635716h4.3104149v-7.2926206c0-3.4332956 1.904602-4.5108993 4.1099305-4.5108993.4009689 0 .8019377.0250605 1.3031487.1253027zm1.6289359 11.7032778c0 2.5060552 2.0800258 4.8116259 5.4882609 4.8116259 2.3556918 0 3.8843855-1.1026642 4.7113837-2.3807524 0 .6265138.0751817 1.5036331.1503633 1.904602h3.9595672c-.1002422-.5513322-.2004844-1.679057-.2004844-2.5311158v-7.8439527c0-3.2077507-1.8795414-6.0646536-6.9417729-6.0646536-4.2853543 0-6.5909251 2.7566607-6.8415306 5.2627159l3.8342644.8019377c.1253028-1.4033909 1.177846-2.6062974 3.0573873-2.6062974 1.8043598 0 2.6814791.9523009 2.6814791 2.0800258 0 .5513321-.3007266 1.0024221-1.2029065 1.1277248l-3.9345066.5763927c-2.6564185.4009688-4.7615049 2.0048442-4.7615049 4.8617471zm6.3904407 1.5788147c-1.4033909 0-2.0800258-.9021798-2.0800258-1.8544808 0-1.227967.8771193-1.8544808 1.9797836-2.0048441l3.6087195-.5513322v.7016955c-.0250606 2.8318423-1.7041175 3.7089616-3.5084773 3.7089616zm73.6780221-7.042015c.100243-1.453512 1.32821-3.1576296 3.558849-3.1576296 2.455684 0 3.508478 1.5537542 3.558348 3.1576296zm7.543227 4.1600516c-.526272 1.4284514-1.628936 2.4308735-3.63378 2.4308735-2.130147 0-3.934507-1.5286937-4.009689-3.63378h11.402551c0-.0751817.075182-.7016955.075182-1.3282093 0-5.1374131-2.957145-8.2699821-7.869013-8.2699821-4.08487 0-7.843953 3.3079929-7.843953 8.3952849 0 5.3880187 3.859325 8.5456482 8.244922 8.5456482 3.934506 0 6.440561-2.3055708 7.26756-5.0622315zm-65.959373-10.3249474h-4.3104149v15.9635716h4.3104149zm-4.8366865-5.2374047c0 1.4282008 1.2029065 2.6313579 2.6564185 2.6313579 1.5036331 0 2.6564185-1.2031571 2.6564185-2.6313579 0-1.5036332-1.1778459-2.6817297-2.6564185-2.6817297-1.453512 0-2.6564185 1.2031571-2.6564185 2.6817297zm38.9440977 5.2374047h-4.310415v15.9635716h4.310415zm-4.8366866-5.2374047c0 1.4282008 1.2029065 2.6313579 2.6564185 2.6313579 1.5036332 0 2.6564185-1.2031571 2.6564185-2.6313579 0-1.5036332-1.1778459-2.6817297-2.6564185-2.6817297-1.453512 0-2.6564185 1.2031571-2.6564185 2.6817297zm-21.752559 12.0288143c0-1.8544809 1.1026643-3.3079929 2.9822057-3.3079929 2.0800258 0 2.9571451 1.4033909 2.9571451 3.1826901v9.3225253h4.3104149v-10.0743419c0-3.5084772-1.8043597-6.3403196-5.7639269-6.3403196-1.7291781 0-3.63378.7518166-4.6111416 2.405813v-1.9797836h-4.1851121v15.9635716h4.3104149zm34.0572904 0c0-1.8544809 1.102664-3.3079929 2.982205-3.3079929 2.080026 0 2.957145 1.4033909 2.957145 3.1826901v9.3225253h4.310415v-10.0743419c0-3.5084772-1.804359-6.3403196-5.763927-6.3403196-1.729178 0-3.63378.7518166-4.611141 2.405813v-1.9797836h-4.1851123v15.9635716h4.3104153zm-14.1842727 5.5383819c-.3007267.0250606-.5262716.0250606-.7518166.0250606-1.0776037 0-1.8544808-.4009688-1.8544808-1.7792992v-18.0937185h-4.2352333v18.8204745c0 3.0824479 1.954723 4.9118682 5.0622315 4.9118682.6766349 0 1.1778459-.0751817 1.7792992-.2004844z" fill="#fff" transform="translate(-14 -58)"/></svg>

<?xml version="1.0" encoding="UTF-8"?>
<svg width="116px" height="25px" viewBox="0 0 116 25" version="1.1" xmlns="http://www.w3.org/2000/svg" xmlns:xlink="http://www.w3.org/1999/xlink">
    <!-- Generator: Sketch 50.2 (55047) - http://www.bohemiancoding.com/sketch -->
    <title>Trainline</title>
    <desc>Created with Sketch.</desc>
    <defs></defs>
    <g id="Desktop" stroke="none" stroke-width="1" fill="none" fill-rule="evenodd">
        <g id="Trainline" transform="translate(-878.000000, -506.000000)" fill="#FFFFFF" fill-rule="nonzero">
            <g id="Hero" transform="translate(-33.000000, 128.000000)">
                <g id="img" transform="translate(689.000000, 0.000000)">
                    <g id="Logo" transform="translate(208.000000, 320.000000)">
                        <path d="M21.8940738,65.9191344 C21.493105,67.5731308 20.766349,68.7509768 19.2627159,69.7533988 L24.3750685,69.7533988 L24.3750685,65.9191344 L21.8940738,65.9191344 Z M14,65.9191344 L14,69.7533988 L15.6289359,69.7533988 C18.5108993,69.7533988 20.265138,68.2247052 20.9417729,65.9191344 L14,65.9191344 Z M21.1171967,64.967084 C21.1923784,64.7164785 21.1923784,64.4155013 21.1923784,64.0899647 L21.1923784,61.1576295 L17.2829323,61.1576295 L17.2829323,63.3629581 C17.2829323,64.0145325 17.1576295,64.5911758 16.8569029,64.991894 L21.1171967,64.991894 L21.1171967,64.967084 Z M16.8819635,70.6806393 L16.8819635,77.1713222 C16.8819635,80.2537701 18.8366865,82.1082509 21.9441949,82.1082509 C23.5230097,82.1082509 24.3750685,81.7072821 24.3750685,81.7072821 L24.3750685,78.1486837 C24.1495235,78.2238654 23.5731308,78.2739865 23.0468592,78.2739865 C21.8188922,78.2739865 21.1673178,77.8228965 21.1673178,76.4195056 L21.1673178,70.6806393 L16.8819635,70.6806393 Z M36.8552233,65.8439527 C36.5294362,65.8188922 36.203649,65.7687711 35.8528012,65.7687711 C34.4995314,65.7687711 32.2942029,66.1697399 31.3168414,68.2748263 L31.3168414,65.8940738 L27.1317292,65.8940738 L27.1317292,81.8576454 L31.4421441,81.8576454 L31.4421441,74.5650248 C31.4421441,71.1317292 33.3467461,70.0541255 35.5520746,70.0541255 C35.9530435,70.0541255 36.3540123,70.079186 36.8552233,70.1794282 L36.8552233,65.8439527 Z M38.4841592,77.5472305 C38.4841592,80.0532857 40.564185,82.3588564 43.9724201,82.3588564 C46.3281119,82.3588564 47.8568056,81.2561922 48.6838038,79.978104 C48.6838038,80.6046178 48.7589855,81.4817371 48.8341671,81.882706 L52.7937343,81.882706 C52.6934921,81.3313738 52.5932499,80.203649 52.5932499,79.3515902 L52.5932499,71.5076375 C52.5932499,68.2998868 50.7137085,65.4429839 45.651477,65.4429839 C41.3661227,65.4429839 39.0605519,68.1996446 38.8099464,70.7056998 L42.6442108,71.5076375 C42.7695136,70.1042466 43.8220568,68.9013401 45.7015981,68.9013401 C47.5059579,68.9013401 48.3830772,69.853641 48.3830772,70.9813659 C48.3830772,71.532698 48.0823506,71.983788 47.1801707,72.1090907 L43.2456641,72.6854834 C40.5892456,73.0864522 38.4841592,74.6903276 38.4841592,77.5472305 Z M44.8745999,79.1260452 C43.471209,79.1260452 42.7945741,78.2238654 42.7945741,77.2715644 C42.7945741,76.0435974 43.6716934,75.4170836 44.7743577,75.2667203 L48.3830772,74.7153881 L48.3830772,75.4170836 C48.3580166,78.2489259 46.6789597,79.1260452 44.8745999,79.1260452 Z M118.552622,72.0840302 C118.652865,70.6305182 119.880832,68.9264006 122.111471,68.9264006 C124.567155,68.9264006 125.619949,70.4801548 125.669819,72.0840302 L118.552622,72.0840302 Z M126.095849,76.2440818 C125.569577,77.6725332 124.466913,78.6749553 122.462069,78.6749553 C120.331922,78.6749553 118.527562,77.1462616 118.45238,75.0411753 L129.854931,75.0411753 C129.854931,74.9659936 129.930113,74.3394798 129.930113,73.712966 C129.930113,68.5755529 126.972968,65.4429839 122.0611,65.4429839 C117.97623,65.4429839 114.217147,68.7509768 114.217147,73.8382688 C114.217147,79.2262875 118.076472,82.383917 122.462069,82.383917 C126.396575,82.383917 128.90263,80.0783462 129.729629,77.3216855 L126.095849,76.2440818 Z M60.136476,65.9191344 L55.8260611,65.9191344 L55.8260611,81.882706 L60.136476,81.882706 L60.136476,65.9191344 Z M55.2997895,60.6817297 C55.2997895,62.1099305 56.502696,63.3130876 57.956208,63.3130876 C59.4598411,63.3130876 60.6126265,62.1099305 60.6126265,60.6817297 C60.6126265,59.1780965 59.4347806,58 57.956208,58 C56.502696,58 55.2997895,59.2031571 55.2997895,60.6817297 Z M94.2438872,65.9191344 L89.9334722,65.9191344 L89.9334722,81.882706 L94.2438872,81.882706 L94.2438872,65.9191344 Z M89.4072006,60.6817297 C89.4072006,62.1099305 90.6101071,63.3130876 92.0636191,63.3130876 C93.5672523,63.3130876 94.7200376,62.1099305 94.7200376,60.6817297 C94.7200376,59.1780965 93.5421917,58 92.0636191,58 C90.6101071,58 89.4072006,59.2031571 89.4072006,60.6817297 Z M67.6546416,72.710544 C67.6546416,70.8560631 68.7573059,69.4025511 70.6368473,69.4025511 C72.7168731,69.4025511 73.5939924,70.805942 73.5939924,72.5852412 L73.5939924,81.9077665 L77.9044073,81.9077665 L77.9044073,71.8334246 C77.9044073,68.3249474 76.1000476,65.493105 72.1404804,65.493105 C70.4113023,65.493105 68.5067004,66.2449216 67.5293388,67.898918 L67.5293388,65.9191344 L63.3442267,65.9191344 L63.3442267,81.882706 L67.6546416,81.882706 L67.6546416,72.710544 Z M101.711932,72.710544 C101.711932,70.8560631 102.814596,69.4025511 104.694137,69.4025511 C106.774163,69.4025511 107.651282,70.805942 107.651282,72.5852412 L107.651282,81.9077665 L111.961697,81.9077665 L111.961697,71.8334246 C111.961697,68.3249474 110.157338,65.493105 106.19777,65.493105 C104.468592,65.493105 102.56399,66.2449216 101.586629,67.898918 L101.586629,65.9191344 L97.4015167,65.9191344 L97.4015167,81.882706 L101.711932,81.882706 L101.711932,72.710544 Z M87.5276593,78.2489259 C87.2269326,78.2739865 87.0013877,78.2739865 86.7758427,78.2739865 C85.698239,78.2739865 84.9213619,77.8730177 84.9213619,76.4946873 L84.9213619,58.4009688 L80.6861286,58.4009688 L80.6861286,77.2214433 C80.6861286,80.3038912 82.6408516,82.1333115 85.7483601,82.1333115 C86.424995,82.1333115 86.926206,82.0581298 87.5276593,81.9328271 L87.5276593,78.2489259 Z" id="Trainline"></path>
                    </g>
                </g>
            </g>
        </g>
    </g>
</svg>
